apps/24/checkbox.svg

<?xml version="1.0" encoding="UTF-8" standalone="no"?>
<!-- Created with Inkscape (http://www.inkscape.org/) -->

<svg
   xmlns:svg="http://www.w3.org/2000/svg"
   xmlns="http://www.w3.org/2000/svg"
   xmlns:xlink="http://www.w3.org/1999/xlink"
   version="1.0"
   width="24"
   height="24"
   id="svg2">
  <defs
     id="defs4">
    <linearGradient
       id="linearGradient10691">
      <stop
         id="stop10693"
         style="stop-color:black;stop-opacity:1"
         offset="0" />
      <stop
         id="stop10695"
         style="stop-color:black;stop-opacity:0"
         offset="1" />
    </linearGradient>
    <radialGradient
       cx="6.702713"
       cy="73.615715"
       r="7.228416"
       fx="6.702713"
       fy="73.615715"
       id="radialGradient2599"
       xlink:href="#linearGradient10691"
       gradientUnits="userSpaceOnUse"
       gradientTransform="matrix(1.1067432,0,0,0.3458572,4.5818182,-3.9605224)" />
    <linearGradient
       id="linearGradient3406">
      <stop
         id="stop3408"
         style="stop-color:gray;stop-opacity:1"
         offset="0" />
      <stop
         id="stop3414"
         style="stop-color:gray;stop-opacity:1"
         offset="0.30009115" />
      <stop
         id="stop3416"
         style="stop-color:#969696;stop-opacity:1"
         offset="0.4148587" />
      <stop
         id="stop3410"
         style="stop-color:#969696;stop-opacity:1"
         offset="1" />
    </linearGradient>
    <linearGradient
       x1="24.000002"
       y1="45"
       x2="24.000002"
       y2="37.974422"
       id="linearGradient2596"
       xlink:href="#linearGradient3406"
       gradientUnits="userSpaceOnUse"
       gradientTransform="matrix(0.4782609,0,0,0.4444444,0.5217382,2.7222232)" />
    <linearGradient
       id="linearGradient3418">
      <stop
         id="stop3420"
         style="stop-color:#aaa;stop-opacity:1"
         offset="0" />
      <stop
         id="stop3426"
         style="stop-color:#b3b3b3;stop-opacity:1"
         offset="0.26436639" />
      <stop
         id="stop3428"
         style="stop-color:#bebebe;stop-opacity:1"
         offset="0.39481503" />
      <stop
         id="stop3422"
         style="stop-color:#b3b3b3;stop-opacity:1"
         offset="1" />
    </linearGradient>
    <linearGradient
       x1="26.870913"
       y1="45"
       x2="26.746988"
       y2="36.943203"
       id="linearGradient2594"
       xlink:href="#linearGradient3418"
       gradientUnits="userSpaceOnUse"
       gradientTransform="matrix(0.4782609,0,0,0.4444444,0.5217382,2.7222232)" />
    <linearGradient
       id="linearGradient3269">
      <stop
         id="stop3271"
         style="stop-color:white;stop-opacity:1"
         offset="0" />
      <stop
         id="stop3273"
         style="stop-color:white;stop-opacity:0"
         offset="1" />
    </linearGradient>
    <linearGradient
       x1="19.283365"
       y1="42.361061"
       x2="19.283365"
       y2="34.020142"
       id="linearGradient2591"
       xlink:href="#linearGradient3269"
       gradientUnits="userSpaceOnUse"
       gradientTransform="matrix(0.3919637,0,0,0.3768224,2.5928705,5.4923376)" />
    <linearGradient
       id="linearGradient3104-947-917-603-424-766-313">
      <stop
         id="stop3930"
         style="stop-color:#28673f;stop-opacity:1"
         offset="0" />
      <stop
         id="stop3932"
         style="stop-color:#41ae67;stop-opacity:1"
         offset="1" />
    </linearGradient>
    <linearGradient
       x1="-51.786404"
       y1="35.412201"
       x2="-51.786404"
       y2="2.2594204"
       id="linearGradient2619"
       xlink:href="#linearGradient3104-947-917-603-424-766-313"
       gradientUnits="userSpaceOnUse"
       gradientTransform="matrix(0.395448,0,0,0.4636534,27.91216,0.8439842)" />
    <linearGradient
       id="linearGradient3298-628-126-871-718-519-851">
      <stop
         id="stop3924"
         style="stop-color:#2f7b48;stop-opacity:1"
         offset="0" />
      <stop
         id="stop3926"
         style="stop-color:#76dd98;stop-opacity:1"
         offset="1" />
    </linearGradient>
    <linearGradient
       x1="31.84656"
       y1="31.999964"
       x2="31.84656"
       y2="0.99868447"
       id="linearGradient2617"
       xlink:href="#linearGradient3298-628-126-871-718-519-851"
       gradientUnits="userSpaceOnUse"
       gradientTransform="matrix(0.4897208,0,0,0.4954351,-1.182267,1.3961366)" />
    <linearGradient
       id="linearGradient3202">
      <stop
         id="stop3204"
         style="stop-color:white;stop-opacity:1"
         offset="0" />
      <stop
         id="stop3206"
         style="stop-color:#d3eefc;stop-opacity:1"
         offset="1" />
    </linearGradient>
    <linearGradient
       id="linearGradient3738">
      <stop
         id="stop3742"
         style="stop-color:white;stop-opacity:1"
         offset="0" />
      <stop
         id="stop3750"
         style="stop-color:white;stop-opacity:0"
         offset="0.85612506" />
      <stop
         id="stop3744"
         style="stop-color:white;stop-opacity:0"
         offset="1" />
    </linearGradient>
    <linearGradient
       x1="17.355219"
       y1="8.000001"
       x2="24.007845"
       y2="26.039217"
       id="linearGradient2584"
       xlink:href="#linearGradient3738"
       gradientUnits="userSpaceOnUse"
       gradientTransform="matrix(0.5838421,0,0,0.6097826,-2.0167895,-3.3782612)" />
    <linearGradient
       x1="-83.756935"
       y1="-7.8379993"
       x2="-92.222527"
       y2="27.521217"
       id="linearGradient2677"
       xlink:href="#linearGradient3202"
       gradientUnits="userSpaceOnUse"
       gradientTransform="matrix(0.3008045,-0.07301487,0.0720177,0.3049695,38.613261,-0.1250728)" />
  </defs>
  <g
     id="layer1">
    <path
       d="M 20,21.5 C 20,22.880712 16.418278,24 12.000001,24 7.5817219,24 4,22.880712 4,21.5 4,20.119288 7.5817219,19 12.000001,19 16.418278,19 20,20.119288 20,21.5 z"
       id="path2883"
       style="opacity:0.4;fill:url(#radialGradient2599);fill-opacity:1;fill-rule:nonzero;stroke:none;stroke-width:0.80000001;marker:none;visibility:visible;display:inline;overflow:visible" />
    <path
       d="m 7.2091601,18.503036 c 0,0 -0.6922491,2.665455 -0.6922491,2.843506 0,0.168187 -0.1557662,1.153457 0.4781772,1.153457 0.6228501,0 9.6479588,0 10.1316878,0 0.484638,0 0.329634,-1.181573 0.371628,-1.275422 0.04062,-0.09077 -0.707662,-2.724578 -0.707662,-2.724578 l -9.5815819,0.003 z"
       id="path2170"
       style="fill:url(#linearGradient2594);fill-opacity:1;fill-rule:evenodd;stroke:url(#linearGradient2596);stroke-width:0.9999997;stroke-linecap:round;stroke-linejoin:round;stroke-miterlimit:4;stroke-opacity:1;stroke-dasharray:none" />
    <path
       d="m 8.0803627,18.502437 c 0,0 -0.43323,2.241113 -0.5325022,2.589807 C 7.4492634,21.438563 7.4711531,21.5 7.9229214,21.5 c 0.4426479,0 7.8502416,0 8.2081806,0 0.366943,0 0.406994,-0.122682 0.345009,-0.411676 C 16.415497,20.805737 15.919636,18.5 15.919636,18.5 l -7.8392733,0.0024 z"
       id="path2186"
       style="opacity:0.4;fill:none;stroke:url(#linearGradient2591);stroke-width:0.99999976;stroke-linecap:round;stroke-linejoin:round;stroke-miterlimit:4;stroke-opacity:1;stroke-dasharray:none" />
    <path
       d="m 0.85779087,2.2402039e-4 c 7.42813973,0 14.85628013,0 22.28441813,0 0.828115,-0.00695874 0.898872,0.92135854961 0.843467,1.56186587961 0,5.5178092 -2e-6,11.0356171 -2e-6,16.5534271 0.0068,0.853884 -0.893553,0.926842 -1.514731,0.869713 -7.204386,0 -14.4087684,0 -21.61315213,0 -0.82811451,0.007 -0.89887276,-0.921359 -0.84346646,-1.561866 0,-5.51781 0,-11.0356193 0,-16.5534285 C 0.00337602,0.40244293 0.40425208,-0.01102671 0.85779087,2.2402039e-4 z"
       id="rect3170"
       style="fill:#1a1a1a;fill-opacity:1;fill-rule:evenodd;stroke:none;stroke-width:1.00396311;marker:none;visibility:visible;display:inline;overflow:visible;enable-background:accumulate" />
    <path
       d="m 1.99996,1.9999608 c 3.927703,0 16.072376,0 20.000079,0 0,6.2581086 0,9.9369432 0,15.0000782 -5.713422,0 -14.286658,0 -20.000079,0 0,-7.4315391 0,-7.5685391 0,-15.0000782 z"
       id="path4322"
       style="fill:url(#linearGradient2617);fill-opacity:1;stroke:url(#linearGradient2619);stroke-width:0.99992186;stroke-linecap:butt;stroke-linejoin:round;stroke-miterlimit:4;stroke-opacity:1;stroke-dasharray:none;stroke-dashoffset:0;display:inline" />
    <g
       transform="translate(-0.8543231,1.3613268e-7)"
       id="g2673">
      <path
         d="m 15.898966,3.2023689 c -0.165507,-0.01703 -0.330053,0.065154 -0.415091,0.2229325 L 11.860703,10.146312 9.5312383,8.2684497 C 9.3237402,8.1534958 9.0648525,8.2274472 8.9514693,8.4378191 L 7.9068391,9.7975584 c -0.113382,0.2103676 -0.037106,0.4727626 0.1703907,0.5877126 0,0 4.2533122,3.561507 4.2585602,3.564141 0.04863,0.02694 0.09949,0.0405 0.151184,0.04712 0.168874,0.02163 0.341697,-0.05881 0.428505,-0.219872 l 4.886327,-9.0641175 c 0.113382,-0.2103709 0.03711,-0.472763 -0.170391,-0.587715 L 16.063565,3.2525516 C 16.01169,3.223813 15.954136,3.2080451 15.898966,3.2023689 z"
         id="path1542"
         style="opacity:0.35;fill:black;fill-opacity:1;fill-rule:nonzero;stroke:none;stroke-width:1.00278974;marker:none;visibility:visible;display:inline;overflow:visible" />
      <path
         d="m 15.898966,4.2023691 c -0.165507,-0.01703 -0.330053,0.065154 -0.415091,0.2229326 L 11.860703,11.146312 9.5312383,9.2684495 C 9.3237402,9.1534956 9.0648525,9.2274471 8.9514693,9.4378187 L 7.9068391,10.797558 c -0.113382,0.210369 -0.037106,0.472763 0.1703907,0.587714 0,0 4.2533122,3.561507 4.2585602,3.56414 0.04863,0.02694 0.09949,0.0405 0.151184,0.04712 0.168874,0.02163 0.341697,-0.05881 0.428505,-0.219871 l 4.886327,-9.0641186 c 0.113382,-0.2103708 0.03711,-0.4727631 -0.170391,-0.5877151 l -1.56785,-0.8722785 c -0.05187,-0.028739 -0.109429,-0.044506 -0.164599,-0.050183 z"
         id="path4368"
         style="fill:url(#linearGradient2677);fill-opacity:1;fill-rule:nonzero;stroke:none;stroke-width:1.00278974;marker:none;visibility:visible;display:inline;overflow:visible" />
    </g>
    <path
       d="M 1.5,1.5191299 1.5,12.5 C 2.5,12.237571 22.171632,6.0999482 22.499995,5.7756512 L 22.5,1.5 1.5,1.51913 z"
       id="path4073"
       style="opacity:0.3;fill:url(#linearGradient2584);fill-opacity:1;fill-rule:evenodd;stroke:none" />
  </g>
</svg>

<?xml version="1.0" encoding="UTF-8" standalone="no"?>
<!-- Created with Inkscape (http://www.inkscape.org/) -->
<svg
   xmlns:dc="http://purl.org/dc/elements/1.1/"
   xmlns:cc="http://creativecommons.org/ns#"
   xmlns:rdf="http://www.w3.org/1999/02/22-rdf-syntax-ns#"
   xmlns:svg="http://www.w3.org/2000/svg"
   xmlns="http://www.w3.org/2000/svg"
   xmlns:xlink="http://www.w3.org/1999/xlink"
   xmlns:sodipodi="http://sodipodi.sourceforge.net/DTD/sodipodi-0.dtd"
   xmlns:inkscape="http://www.inkscape.org/namespaces/inkscape"
   width="24"
   height="24"
   id="svg2"
   sodipodi:version="0.32"
   inkscape:version="0.46"
   version="1.0"
   sodipodi:docname="checkbox.svg"
   inkscape:output_extension="org.inkscape.output.svg.inkscape">
  <defs
     id="defs4">
    <linearGradient
       id="linearGradient10691">
      <stop
         id="stop10693"
         style="stop-color:#000000;stop-opacity:1"
         offset="0" />
      <stop
         id="stop10695"
         style="stop-color:#000000;stop-opacity:0"
         offset="1" />
    </linearGradient>
    <radialGradient
       inkscape:collect="always"
       xlink:href="#linearGradient10691"
       id="radialGradient2599"
       gradientUnits="userSpaceOnUse"
       gradientTransform="matrix(1.1067432,0,0,0.3458572,4.5818182,-3.9605224)"
       cx="6.702713"
       cy="73.615715"
       fx="6.702713"
       fy="73.615715"
       r="7.228416" />
    <linearGradient
       id="linearGradient3406">
      <stop
         id="stop3408"
         style="stop-color:#808080;stop-opacity:1"
         offset="0" />
      <stop
         id="stop3414"
         style="stop-color:#808080;stop-opacity:1"
         offset="0.30009115" />
      <stop
         id="stop3416"
         style="stop-color:#969696;stop-opacity:1"
         offset="0.4148587" />
      <stop
         id="stop3410"
         style="stop-color:#969696;stop-opacity:1"
         offset="1" />
    </linearGradient>
    <linearGradient
       inkscape:collect="always"
       xlink:href="#linearGradient3406"
       id="linearGradient2596"
       gradientUnits="userSpaceOnUse"
       gradientTransform="matrix(0.4782609,0,0,0.4444444,0.5217382,2.7222232)"
       x1="24.000002"
       y1="45"
       x2="24.000002"
       y2="37.974422" />
    <linearGradient
       id="linearGradient3418">
      <stop
         id="stop3420"
         style="stop-color:#aaaaaa;stop-opacity:1"
         offset="0" />
      <stop
         id="stop3426"
         style="stop-color:#b3b3b3;stop-opacity:1"
         offset="0.26436639" />
      <stop
         id="stop3428"
         style="stop-color:#bebebe;stop-opacity:1"
         offset="0.39481503" />
      <stop
         id="stop3422"
         style="stop-color:#b3b3b3;stop-opacity:1"
         offset="1" />
    </linearGradient>
    <linearGradient
       inkscape:collect="always"
       xlink:href="#linearGradient3418"
       id="linearGradient2594"
       gradientUnits="userSpaceOnUse"
       gradientTransform="matrix(0.4782609,0,0,0.4444444,0.5217382,2.7222232)"
       x1="26.870913"
       y1="45"
       x2="26.746988"
       y2="36.943203" />
    <linearGradient
       id="linearGradient3269">
      <stop
         id="stop3271"
         style="stop-color:#ffffff;stop-opacity:1"
         offset="0" />
      <stop
         id="stop3273"
         style="stop-color:#ffffff;stop-opacity:0"
         offset="1" />
    </linearGradient>
    <linearGradient
       inkscape:collect="always"
       xlink:href="#linearGradient3269"
       id="linearGradient2591"
       gradientUnits="userSpaceOnUse"
       gradientTransform="matrix(0.3919637,0,0,0.3768224,2.5928705,5.4923376)"
       x1="19.283365"
       y1="42.361061"
       x2="19.283365"
       y2="34.020142" />
    <linearGradient
       id="linearGradient3104-947-917-603-424-766-313">
      <stop
         offset="0"
         style="stop-color:#28673f;stop-opacity:1"
         id="stop3930" />
      <stop
         offset="1"
         style="stop-color:#41ae67;stop-opacity:1"
         id="stop3932" />
    </linearGradient>
    <linearGradient
       inkscape:collect="always"
       xlink:href="#linearGradient3104-947-917-603-424-766-313"
       id="linearGradient2619"
       gradientUnits="userSpaceOnUse"
       gradientTransform="matrix(0.395448,0,0,0.4636534,27.91216,0.8439842)"
       x1="-51.786404"
       y1="35.412201"
       x2="-51.786404"
       y2="2.2594204" />
    <linearGradient
       id="linearGradient3298-628-126-871-718-519-851">
      <stop
         offset="0"
         style="stop-color:#2f7b48;stop-opacity:1"
         id="stop3924" />
      <stop
         offset="1"
         style="stop-color:#76dd98;stop-opacity:1"
         id="stop3926" />
    </linearGradient>
    <linearGradient
       inkscape:collect="always"
       xlink:href="#linearGradient3298-628-126-871-718-519-851"
       id="linearGradient2617"
       gradientUnits="userSpaceOnUse"
       gradientTransform="matrix(0.4897208,0,0,0.4954351,-1.182267,1.3961366)"
       x1="31.84656"
       y1="31.999964"
       x2="31.84656"
       y2="0.99868447" />
    <linearGradient
       id="linearGradient3202">
      <stop
         offset="0"
         style="stop-color:#ffffff;stop-opacity:1"
         id="stop3204" />
      <stop
         offset="1"
         style="stop-color:#d3eefc;stop-opacity:1"
         id="stop3206" />
    </linearGradient>
    <linearGradient
       id="linearGradient3738">
      <stop
         id="stop3742"
         style="stop-color:#ffffff;stop-opacity:1"
         offset="0" />
      <stop
         id="stop3750"
         style="stop-color:#ffffff;stop-opacity:0"
         offset="0.85612506" />
      <stop
         id="stop3744"
         style="stop-color:#ffffff;stop-opacity:0"
         offset="1" />
    </linearGradient>
    <linearGradient
       inkscape:collect="always"
       xlink:href="#linearGradient3738"
       id="linearGradient2584"
       gradientUnits="userSpaceOnUse"
       gradientTransform="matrix(0.5838421,0,0,0.6097826,-2.0167895,-3.3782612)"
       x1="17.355219"
       y1="8.000001"
       x2="24.007845"
       y2="26.039217" />
    <linearGradient
       inkscape:collect="always"
       xlink:href="#linearGradient3202"
       id="linearGradient2677"
       gradientUnits="userSpaceOnUse"
       gradientTransform="matrix(0.3008045,-7.3014866e-2,7.2017698e-2,0.3049695,38.613261,-0.1250728)"
       x1="-83.756935"
       y1="-7.8379993"
       x2="-92.222527"
       y2="27.521217" />
  </defs>
  <sodipodi:namedview
     id="base"
     pagecolor="#ffffff"
     bordercolor="#666666"
     borderopacity="1.0"
     gridtolerance="10000"
     guidetolerance="10"
     objecttolerance="10"
     inkscape:pageopacity="0.0"
     inkscape:pageshadow="2"
     inkscape:zoom="10.375"
     inkscape:cx="-2.746988"
     inkscape:cy="12"
     inkscape:document-units="px"
     inkscape:current-layer="layer1"
     showgrid="false"
     inkscape:window-width="1440"
     inkscape:window-height="794"
     inkscape:window-x="0"
     inkscape:window-y="24" />
  <metadata
     id="metadata7">
    <rdf:RDF>
      <cc:Work
         rdf:about="">
        <dc:format>image/svg+xml</dc:format>
        <dc:type
           rdf:resource="http://purl.org/dc/dcmitype/StillImage" />
      </cc:Work>
    </rdf:RDF>
  </metadata>
  <g
     inkscape:label="Layer 1"
     inkscape:groupmode="layer"
     id="layer1">
    <path
       style="opacity:0.40000000000000002;fill:url(#radialGradient2599);fill-opacity:1;fill-rule:nonzero;stroke:none;stroke-width:0.80000000999999998;stroke-linecap:butt;stroke-linejoin:miter;marker:none;marker-start:none;marker-mid:none;marker-end:none;stroke-miterlimit:4;stroke-dashoffset:0;stroke-opacity:1;visibility:visible;display:inline;overflow:visible"
       id="path2883"
       d="M 20,21.5 C 20,22.880712 16.418278,24 12.000001,24 C 7.5817219,24 4,22.880712 4,21.5 C 4,20.119288 7.5817219,19 12.000001,19 C 16.418278,19 20,20.119288 20,21.5 z" />
    <path
       style="fill:url(#linearGradient2594);fill-opacity:1;fill-rule:evenodd;stroke:url(#linearGradient2596);stroke-width:0.99999970000000005;stroke-linecap:round;stroke-linejoin:round;stroke-miterlimit:4;stroke-dasharray:none;stroke-opacity:1"
       id="path2170"
       d="M 7.2091601,18.503036 C 7.2091601,18.503036 6.516911,21.168491 6.516911,21.346542 C 6.516911,21.514729 6.3611448,22.499999 6.9950882,22.499999 C 7.6179383,22.499999 16.643047,22.499999 17.126776,22.499999 C 17.611414,22.499999 17.45641,21.318426 17.498404,21.224577 C 17.53902,21.133808 16.790742,18.499999 16.790742,18.499999 L 7.2091601,18.503036 z" />
    <path
       style="opacity:0.40000000000000002;fill:none;fill-opacity:1;fill-rule:evenodd;stroke:url(#linearGradient2591);stroke-width:0.99999976000000002;stroke-linecap:round;stroke-linejoin:round;stroke-miterlimit:4;stroke-dasharray:none;stroke-opacity:1"
       id="path2186"
       d="M 8.0803627,18.502437 C 8.0803627,18.502437 7.6471327,20.74355 7.5478605,21.092244 C 7.4492634,21.438563 7.4711531,21.5 7.9229214,21.5 C 8.3655693,21.5 15.773163,21.5 16.131102,21.5 C 16.498045,21.5 16.538096,21.377318 16.476111,21.088324 C 16.415497,20.805737 15.919636,18.5 15.919636,18.5 L 8.0803627,18.502437 z" />
    <path
       style="fill:#1a1a1a;fill-opacity:1;fill-rule:evenodd;stroke:none;stroke-width:1.00396310999999994;stroke-linecap:round;stroke-linejoin:round;marker:none;marker-start:none;marker-mid:none;marker-end:none;stroke-miterlimit:4;stroke-dasharray:none;stroke-dashoffset:0;stroke-opacity:1;visibility:visible;display:inline;overflow:visible;enable-background:accumulate"
       id="rect3170"
       d="M 0.85779087,0.00022402039 C 8.2859306,0.00022402039 15.714071,0.00022402039 23.142209,0.00022402039 C 23.970324,-0.006734719 24.041081,0.92158257 23.985676,1.5620899 C 23.985676,7.0798991 23.985674,12.597707 23.985674,18.115517 C 23.992426,18.969401 23.092121,19.042359 22.470943,18.98523 C 15.266557,18.98523 8.0621746,18.98523 0.85779087,18.98523 C 0.029676361,18.992188 -0.04108189,18.063871 0.014324414,17.423364 C 0.014324414,11.905554 0.014324414,6.3877447 0.014324414,0.8699355 C 0.0033760192,0.40244293 0.40425208,-0.011026713 0.85779087,0.00022402039 z" />
    <path
       d="M 1.99996,1.9999608 C 5.927663,1.9999608 18.072336,1.9999608 22.000039,1.9999608 C 22.000039,8.2580694 22.000039,11.936904 22.000039,17.000039 C 16.286617,17.000039 7.713381,17.000039 1.99996,17.000039 C 1.99996,9.5684999 1.99996,9.4314999 1.99996,1.9999608 z"
       id="path4322"
       style="fill:url(#linearGradient2617);fill-opacity:1;stroke:url(#linearGradient2619);stroke-width:0.99992186000000005;stroke-linecap:butt;stroke-linejoin:round;stroke-miterlimit:4;stroke-dasharray:none;stroke-dashoffset:0;stroke-opacity:1;display:inline" />
    <g
       id="g2673"
       transform="translate(-0.8543231,1.3613268e-7)">
      <path
         style="opacity:0.35;fill:#000000;fill-opacity:1;fill-rule:nonzero;stroke:none;stroke-width:1.00278974;stroke-linecap:round;stroke-linejoin:round;marker:none;marker-start:none;marker-mid:none;marker-end:none;stroke-miterlimit:4;stroke-dasharray:none;stroke-dashoffset:0;stroke-opacity:1;visibility:visible;display:inline;overflow:visible"
         id="path1542"
         d="M 15.898966,3.2023689 C 15.733459,3.1853392 15.568913,3.2675231 15.483875,3.4253014 L 11.860703,10.146312 L 9.5312383,8.2684497 C 9.3237402,8.1534958 9.0648525,8.2274472 8.9514693,8.4378191 L 7.9068391,9.7975584 C 7.7934571,10.007926 7.869733,10.270321 8.0772298,10.385271 C 8.0772298,10.385271 12.330542,13.946778 12.33579,13.949412 C 12.384421,13.976356 12.435278,13.989911 12.486974,13.996535 C 12.655848,14.018168 12.828671,13.937728 12.915479,13.776663 L 17.801806,4.7125455 C 17.915188,4.5021746 17.838913,4.2397825 17.631415,4.1248305 L 16.063565,3.2525516 C 16.01169,3.223813 15.954136,3.2080451 15.898966,3.2023689 z" />
      <path
         style="fill:url(#linearGradient2677);fill-opacity:1;fill-rule:nonzero;stroke:none;stroke-width:1.00278974;stroke-linecap:round;stroke-linejoin:round;marker:none;marker-start:none;marker-mid:none;marker-end:none;stroke-miterlimit:4;stroke-dasharray:none;stroke-dashoffset:0;stroke-opacity:1;visibility:visible;display:inline;overflow:visible"
         id="path4368"
         d="M 15.898966,4.2023691 C 15.733459,4.1853393 15.568913,4.2675233 15.483875,4.4253017 L 11.860703,11.146312 L 9.5312383,9.2684495 C 9.3237402,9.1534956 9.0648525,9.2274471 8.9514693,9.4378187 L 7.9068391,10.797558 C 7.7934571,11.007927 7.869733,11.270321 8.0772298,11.385272 C 8.0772298,11.385272 12.330542,14.946779 12.33579,14.949412 C 12.384421,14.976357 12.435278,14.989913 12.486974,14.996535 C 12.655848,15.018169 12.828671,14.937729 12.915479,14.776664 L 17.801806,5.7125454 C 17.915188,5.5021746 17.838913,5.2397823 17.631415,5.1248303 L 16.063565,4.2525518 C 16.01169,4.2238132 15.954136,4.2080455 15.898966,4.2023691 z" />
    </g>
    <path
       style="opacity:0.29999999999999999;fill:url(#linearGradient2584);fill-opacity:1;fill-rule:evenodd;stroke:none;stroke-width:1px;stroke-linecap:butt;stroke-linejoin:miter;stroke-opacity:1"
       id="path4073"
       d="M 1.5,1.5191299 L 1.5,12.5 C 2.5,12.237571 22.171632,6.0999482 22.499995,5.7756512 L 22.5,1.5 L 1.5,1.5191299 z" />
  </g>
</svg>
